img/sprites/logo.svg

<svg width="242" height="64" viewBox="0 0 242 64" fill="none" xmlns="http://www.w3.org/2000/svg">
<path fill-rule="evenodd" clip-rule="evenodd" d="M164.263 25.1131V36.0833H166.436V28.8713L171.141 36.0833H173.491V25.1131H171.317V32.4649L166.538 25.1131H164.263Z" fill="#565F64"/>
<path fill-rule="evenodd" clip-rule="evenodd" d="M157.928 30.6134C157.928 28.8237 157.414 27.4262 156.387 26.4211C155.359 25.416 153.989 24.914 152.276 24.9149C151.42 24.9002 150.57 25.0485 149.77 25.3519C149.21 25.5798 148.7 25.9164 148.27 26.3425C147.821 26.7748 147.455 27.2852 147.189 27.8487C146.835 28.61 146.657 29.5496 146.656 30.6673C146.656 32.4153 147.166 33.789 148.186 34.7882C149.205 35.7875 150.579 36.2862 152.308 36.2842C154.013 36.2842 155.376 35.7831 156.397 34.781C157.417 33.7788 157.927 32.3906 157.926 30.6163L157.928 30.6134ZM154.633 27.7438C155.215 28.3614 155.507 29.3 155.507 30.5595C155.507 31.8336 155.207 32.7897 154.606 33.4277C154.303 33.7313 153.942 33.9719 153.545 34.1359C153.148 34.2998 152.722 34.3839 152.293 34.3832C151.863 34.3825 151.438 34.2971 151.041 34.1319C150.645 33.9667 150.285 33.7249 149.982 33.4204C149.374 32.7766 149.069 31.8336 149.068 30.5916C149.068 29.3291 149.364 28.3833 149.957 27.754C150.549 27.1247 151.329 26.8115 152.298 26.8144C153.269 26.8144 154.046 27.1242 154.628 27.7438H154.633Z" fill="#E7A24F"/>
<path fill-rule="evenodd" clip-rule="evenodd" d="M142.49 36.0833V26.9674H145.913V25.1131H136.701V26.9674H140.139V36.0833H142.49Z" fill="#E7A24F"/>
<path fill-rule="evenodd" clip-rule="evenodd" d="M134.985 34.6586C135.33 34.1413 135.522 33.5369 135.538 32.9151C135.555 32.2934 135.395 31.6797 135.077 31.1451C134.758 30.6643 134.315 30.2787 133.795 30.0293C133.252 29.7584 132.411 29.4933 131.273 29.2398C130.136 28.9863 129.419 28.7387 129.125 28.5013C129.018 28.4256 128.931 28.3256 128.87 28.2096C128.81 28.0937 128.778 27.9649 128.777 27.8341C128.775 27.6979 128.807 27.5633 128.872 27.4435C128.937 27.3236 129.032 27.2223 129.147 27.1495C129.524 26.8892 130.05 26.7591 130.727 26.7591C131.382 26.7591 131.873 26.8834 132.2 27.132C132.527 27.3806 132.741 27.7875 132.841 28.3527L135.192 28.2755C135.154 27.2568 134.768 26.443 134.035 25.8341C133.302 25.2252 132.211 24.9184 130.761 24.9135C129.982 24.8951 129.207 25.0271 128.478 25.3024C127.896 25.5207 127.392 25.9083 127.032 26.4153C126.71 26.8749 126.538 27.4219 126.536 27.9827C126.536 28.8567 126.891 29.5947 127.601 30.1968C128.107 30.628 128.986 30.9912 130.236 31.2864C131.209 31.5166 131.831 31.6739 132.104 31.7671C132.419 31.8506 132.709 32.013 132.944 32.2391C133.104 32.4227 133.19 32.6597 133.185 32.9033C133.185 33.3063 132.994 33.6588 132.612 33.9609C132.23 34.2629 131.662 34.4134 130.906 34.4124C130.196 34.4124 129.631 34.243 129.212 33.9041C128.793 33.5646 128.517 33.0301 128.379 32.3134L126.099 32.529C126.254 33.7516 126.723 34.6829 127.508 35.3228C128.293 35.9628 129.42 36.2828 130.889 36.2828C131.897 36.2828 132.739 36.1493 133.416 35.8822C134.053 35.6464 134.6 35.2189 134.984 34.6586H134.985Z" fill="#E7A24F"/>
<path fill-rule="evenodd" clip-rule="evenodd" d="M118.245 34.2289V31.2573H124.051V29.403H118.245V26.9674H124.488V25.1131H115.894V36.0833H124.716V34.2289H118.245Z" fill="#E7A24F"/>
<path fill-rule="evenodd" clip-rule="evenodd" d="M113.409 36.0833V25.1131H111.237V32.4649L106.458 25.1131H104.182V36.0833H106.356V28.8713L111.061 36.0833H113.409Z" fill="#E7A24F"/>
<path fill-rule="evenodd" clip-rule="evenodd" d="M101.945 29.2981V27.6434H100.867L101.493 24.73H99.642L99.0331 27.6434H97.3302L97.9581 24.73H96.1707L95.5414 27.6434H93.2676V29.2981H95.1846L94.7082 31.505H93.2676V33.1598H94.3513L93.7221 36.0731H95.5094L96.1387 33.1598H97.8867L97.2792 36.0731H99.0637L99.6886 33.1598H101.951V31.505H100.04L100.513 29.2981H101.945ZM96.9719 29.2981H98.6878L98.229 31.505H96.4956L96.9661 29.2981H96.9719Z" fill="#E7A24F"/>
<path fill-rule="evenodd" clip-rule="evenodd" d="M159.676 25.1131V36.0833H162.027V25.1131H159.676Z" fill="#E7A24F"/>
<path fill-rule="evenodd" clip-rule="evenodd" d="M179.298 25.1131L174.783 36.0833H177.269L178.234 33.5865H182.895L183.897 36.0833H186.43L181.779 25.1131H179.298ZM178.955 31.7322L180.522 27.6725L182.136 31.7322H178.955Z" fill="#565F64"/>
<path fill-rule="evenodd" clip-rule="evenodd" d="M195.314 25.1131L193.258 32.5945L191.176 25.1131H187.654V36.0833H189.827L189.834 27.4467L192.114 36.0833H194.373L196.662 27.4467L196.671 36.0833H198.844V25.1131H195.314Z" fill="#43A2D9"/>
<path fill-rule="evenodd" clip-rule="evenodd" d="M201.195 25.1131V36.0833H210.018V34.2289H203.548V31.2573H209.352V29.403H203.548V26.9674H209.791V25.1131H201.195Z" fill="#43A2D9"/>
<path fill-rule="evenodd" clip-rule="evenodd" d="M212.899 30.1968C213.405 30.628 214.284 30.9912 215.534 31.2864C216.507 31.5166 217.129 31.6739 217.402 31.7671C217.718 31.8506 218.007 32.013 218.242 32.2391C218.403 32.4227 218.488 32.6597 218.483 32.9033C218.483 33.3063 218.292 33.6588 217.91 33.9609C217.529 34.2629 216.962 34.4134 216.21 34.4124C215.499 34.4124 214.935 34.243 214.516 33.9041C214.097 33.5647 213.821 33.0301 213.683 32.3134L211.396 32.5275C211.55 33.7501 212.02 34.6814 212.805 35.3214C213.589 35.9614 214.716 36.2813 216.186 36.2813C217.194 36.2813 218.036 36.1478 218.713 35.8808C219.349 35.6449 219.897 35.2174 220.28 34.6572C220.626 34.1399 220.817 33.5354 220.834 32.9137C220.85 32.2919 220.69 31.6783 220.372 31.1437C220.053 30.6629 219.61 30.2773 219.09 30.0279C218.547 29.7569 217.706 29.4918 216.569 29.2383C215.431 28.9849 214.714 28.7373 214.42 28.4998C214.313 28.4241 214.226 28.3242 214.166 28.2082C214.105 28.0922 214.073 27.9635 214.072 27.8327C214.07 27.6964 214.103 27.5619 214.167 27.442C214.232 27.3221 214.327 27.2209 214.442 27.148C214.823 26.8829 215.351 26.7504 216.028 26.7504C216.683 26.7504 217.174 26.8747 217.501 27.1233C217.828 27.3719 218.042 27.7788 218.142 28.344L220.493 28.2668C220.455 27.2481 220.069 26.4343 219.336 25.8254C218.603 25.2165 217.51 24.9116 216.057 24.9106C215.28 24.8908 214.507 25.0209 213.779 25.2937C213.197 25.512 212.693 25.8996 212.333 26.4066C212.009 26.8673 211.834 27.4166 211.833 27.9798C211.833 28.8538 212.188 29.5918 212.898 30.1939L212.899 30.1968Z" fill="#43A2D9"/>
<path fill-rule="evenodd" clip-rule="evenodd" d="M225.441 26.9674V36.0833H227.792V26.9674H231.214V25.1131H222.002V26.9674H225.441Z" fill="#43A2D9"/>
<path fill-rule="evenodd" clip-rule="evenodd" d="M232.736 25.1131V36.0833H241.559V34.2289H235.087V31.2573H240.894V29.403H235.087V26.9674H241.332V25.1131H232.736Z" fill="#43A2D9"/>
<path fill-rule="evenodd" clip-rule="evenodd" d="M60.2836 27.1116C60.1318 26.3852 60.1985 25.6301 60.4752 24.9414C60.7519 24.2528 61.2262 23.6614 61.8384 23.2419C62.4505 22.8223 63.1732 22.5933 63.9152 22.5838C64.6573 22.5742 65.3856 22.7844 66.0084 23.188C66.6312 23.5916 67.1207 24.1705 67.415 24.8517C67.7094 25.533 67.7956 26.2861 67.6627 27.0163C67.5298 27.7464 67.1838 28.4209 66.6683 28.9548C66.1528 29.4886 65.4908 29.858 64.7657 30.0162C63.7862 30.2253 62.7637 30.0368 61.9232 29.4921C61.0826 28.9474 60.4929 28.0911 60.2836 27.1116ZM54.4875 42.8116L68.7745 35.8196C69.6936 35.3695 72.5268 33.1058 73.4795 30.0629C74.4322 27.0199 74.6973 21.5341 70.1131 18.2638C65.529 14.9936 59.4984 16.5275 57.0891 19.0271C54.6798 21.5268 53.0308 24.8538 53.5931 31.5152C54.1554 38.1765 54.486 42.8102 54.486 42.8102L54.4875 42.8116Z" fill="#E7A24F"/>
<path fill-rule="evenodd" clip-rule="evenodd" d="M63.7548 10.6018C63.7037 11.1723 63.8219 11.7452 64.0947 12.2489C64.3674 12.7526 64.7826 13.1647 65.2883 13.4337C65.794 13.7027 66.3678 13.8167 66.9379 13.7613C67.508 13.706 68.0492 13.4838 68.4937 13.1226C68.9383 12.7614 69.2665 12.2771 69.4373 11.7304C69.6081 11.1836 69.6139 10.5987 69.4541 10.0486C69.2943 9.49859 68.9758 9.00787 68.5386 8.63782C68.1014 8.26778 67.5648 8.03483 66.9959 7.96811C66.2169 7.88785 65.4379 8.12019 64.8302 8.61404C64.2224 9.10789 63.8356 9.82284 63.7548 10.6018Z" fill="#E7A24F"/>
<path fill-rule="evenodd" clip-rule="evenodd" d="M70.8764 13.352C70.6294 13.6878 70.4872 14.0891 70.4675 14.5055C70.4477 14.9219 70.5514 15.3349 70.7655 15.6925C70.9795 16.0502 71.2944 16.3368 71.6707 16.5162C72.047 16.6956 72.4678 16.7599 72.8805 16.701C73.2932 16.6422 73.6793 16.4627 73.9904 16.1853C74.3015 15.9078 74.5237 15.5447 74.6293 15.1414C74.7348 14.7381 74.7188 14.3126 74.5835 13.9184C74.4481 13.5241 74.1993 13.1786 73.8683 12.9252C73.6439 12.7567 73.3884 12.6342 73.1166 12.5644C72.8447 12.4947 72.5618 12.4792 72.2839 12.5189C72.0061 12.5585 71.7388 12.6525 71.4973 12.7954C71.2558 12.9384 71.0448 13.1275 70.8764 13.352Z" fill="#E7A24F"/>
<path fill-rule="evenodd" clip-rule="evenodd" d="M75.0498 17.7962C74.8203 18.0107 74.659 18.288 74.5858 18.5934C74.5127 18.8989 74.5309 19.2191 74.6382 19.5143C74.7456 19.8095 74.9373 20.0666 75.1896 20.2537C75.4419 20.4408 75.7436 20.5497 76.0573 20.5667C76.3709 20.5837 76.6826 20.5082 76.9537 20.3494C77.2248 20.1907 77.4432 19.9559 77.5818 19.674C77.7205 19.3922 77.7733 19.0758 77.7336 18.7642C77.6939 18.4526 77.5635 18.1596 77.3586 17.9215C77.0689 17.5989 76.663 17.4045 76.2301 17.3811C75.7972 17.3576 75.3727 17.5069 75.0498 17.7962Z" fill="#E7A24F"/>
<path fill-rule="evenodd" clip-rule="evenodd" d="M77.4781 22.1313C77.2026 22.1105 76.927 22.1719 76.6864 22.3076C76.4457 22.4434 76.2507 22.6475 76.1261 22.8941C76.0014 23.1407 75.9527 23.4188 75.9861 23.6931C76.0194 23.9674 76.1334 24.2256 76.3136 24.4351C76.4938 24.6446 76.732 24.796 76.9982 24.8701C77.2644 24.9442 77.5466 24.9377 77.8091 24.8514C78.0716 24.765 78.3026 24.6028 78.4729 24.3852C78.6432 24.1676 78.7451 23.9043 78.7658 23.6288C78.7935 23.2595 78.6734 22.8943 78.432 22.6135C78.1905 22.3327 77.8474 22.1593 77.4781 22.1313Z" fill="#E7A24F"/>
<path fill-rule="evenodd" clip-rule="evenodd" d="M77.1401 26.6455C76.9884 26.5423 76.8092 26.487 76.6257 26.4868C76.4422 26.4867 76.2629 26.5416 76.1109 26.6445C75.959 26.7474 75.8415 26.8935 75.7736 27.0639C75.7057 27.2344 75.6905 27.4213 75.73 27.6005C75.7696 27.7797 75.862 27.9429 75.9953 28.0689C76.1286 28.195 76.2968 28.2781 76.4779 28.3075C76.659 28.3369 76.8448 28.3113 77.0111 28.2339C77.1775 28.1565 77.3168 28.0309 77.411 27.8735C77.5377 27.6747 77.5803 27.4337 77.5295 27.2035C77.4787 26.9732 77.3387 26.7726 77.1401 26.6455Z" fill="#E7A24F"/>
<path fill-rule="evenodd" clip-rule="evenodd" d="M33.3702 24.4139C34.4292 17.8167 33.0337 14.3731 30.8181 11.7001C28.6026 9.02713 22.703 7.05189 17.8873 9.96522C13.0716 12.8786 12.9273 18.3687 13.6499 21.4729C14.3724 24.5771 17.0279 27.0505 17.9164 27.5676L31.6368 35.6171C31.6368 35.6171 32.3112 31.0184 33.3702 24.4197V24.4139ZM27.0293 19.521C26.811 20.2302 26.3876 20.859 25.8126 21.3281C25.2375 21.7972 24.5365 22.0856 23.7978 22.157C23.0591 22.2284 22.3158 22.0796 21.6616 21.7293C21.0073 21.379 20.4713 20.8429 20.1212 20.1886C19.7711 19.5343 19.6224 18.791 19.694 18.0523C19.7655 17.3136 20.0541 16.6127 20.5233 16.0377C20.9925 15.4627 21.6214 15.0395 22.3307 14.8213C23.04 14.6031 23.7981 14.5997 24.5093 14.8116C25.468 15.102 26.272 15.7612 26.7446 16.6444C27.2172 17.5276 27.3196 18.5623 27.0293 19.521Z" fill="#E7A24F"/>
<path fill-rule="evenodd" clip-rule="evenodd" d="M22.0051 5.90114C22.7871 5.86009 23.5209 5.51022 24.0451 4.92842C24.5692 4.34661 24.8409 3.58049 24.8005 2.79843C24.7694 2.02577 24.4326 1.2971 23.8643 0.772739C23.5828 0.513099 23.253 0.311431 22.8937 0.179249C22.5343 0.0470674 22.1525 -0.01304 21.7699 0.00235905C20.9972 0.0334588 20.2685 0.370225 19.7442 0.938572C19.2198 1.50692 18.9427 2.26029 18.9738 3.03296C18.9963 3.81499 19.3281 4.55617 19.8964 5.09388C20.4647 5.63159 21.223 5.92191 22.0051 5.90114Z" fill="#E7A24F"/>
<path fill-rule="evenodd" clip-rule="evenodd" d="M16.8968 7.97392C17.2599 7.74648 17.547 7.41608 17.7216 7.02484C17.8962 6.63359 17.9504 6.19921 17.8772 5.77707C17.804 5.35494 17.6067 4.96415 17.3106 4.65453C17.0145 4.34492 16.6328 4.13048 16.2144 4.03857C15.7959 3.94666 15.3596 3.98143 14.9609 4.13844C14.5623 4.29546 14.2195 4.56762 13.9761 4.92022C13.7327 5.27283 13.5998 5.68991 13.5944 6.11832C13.589 6.54672 13.7112 6.96704 13.9456 7.3257C14.251 7.80294 14.7335 8.13932 15.287 8.26088C15.8404 8.38244 16.4194 8.27922 16.8968 7.97392Z" fill="#E7A24F"/>
<path fill-rule="evenodd" clip-rule="evenodd" d="M13.0468 11.4365C13.2914 11.2104 13.4628 10.9163 13.5389 10.5921C13.615 10.2678 13.5924 9.9282 13.4739 9.61691C13.3555 9.30562 13.1466 9.03687 12.8742 8.84524C12.6018 8.6536 12.2783 8.54784 11.9453 8.54154C11.6123 8.53525 11.285 8.62871 11.0055 8.80991C10.7261 8.99112 10.5072 9.25177 10.3771 9.55837C10.2469 9.86496 10.2115 10.2035 10.2753 10.5304C10.3391 10.8573 10.4992 11.1576 10.7351 11.3928C11.036 11.7049 11.4485 11.8848 11.8819 11.893C12.3154 11.9012 12.7344 11.737 13.0468 11.4365Z" fill="#E7A24F"/>
<path fill-rule="evenodd" clip-rule="evenodd" d="M11.6528 14.6674C11.6528 14.3911 11.5708 14.121 11.4173 13.8913C11.2639 13.6615 11.0457 13.4825 10.7904 13.3768C10.5352 13.271 10.2543 13.2434 9.9833 13.2973C9.71232 13.3512 9.46341 13.4842 9.26804 13.6796C9.07268 13.8749 8.93963 14.1239 8.88573 14.3948C8.83183 14.6658 8.85949 14.9467 8.96522 15.2019C9.07095 15.4572 9.25001 15.6754 9.47973 15.8289C9.70946 15.9824 9.97954 16.0643 10.2558 16.0643C10.4393 16.0643 10.6209 16.0282 10.7904 15.958C10.9599 15.8878 11.1139 15.7849 11.2436 15.6552C11.3733 15.5254 11.4762 15.3714 11.5464 15.2019C11.6166 15.0325 11.6528 14.8508 11.6528 14.6674Z" fill="#E7A24F"/>
<path fill-rule="evenodd" clip-rule="evenodd" d="M11.4343 18.2303C11.3501 18.0847 11.2252 17.967 11.0749 17.8915C10.9246 17.816 10.7556 17.7861 10.5885 17.8054C10.4215 17.8248 10.2637 17.8926 10.1347 18.0004C10.0057 18.1083 9.91099 18.2515 9.86233 18.4125C9.81367 18.5735 9.81314 18.7452 9.8608 18.9064C9.90846 19.0677 10.0022 19.2115 10.1306 19.3202C10.259 19.4289 10.4163 19.4976 10.5832 19.518C10.7501 19.5384 10.9194 19.5095 11.0701 19.435C11.2772 19.323 11.4316 19.1335 11.4993 18.908C11.567 18.6825 11.5426 18.4393 11.4314 18.2318L11.4343 18.2303Z" fill="#E7A24F"/>
<path fill-rule="evenodd" clip-rule="evenodd" d="M26.8444 3.49471C36.8153 1.99288 40.7643 5.67971 40.7643 5.67971C46.3754 10.5683 45.5801 17.1408 45.5801 17.1408C42.859 18.0774 36.623 20.0308 36.623 20.0308C36.6711 20.3221 36.6711 21.1379 36.6711 21.1379L45.532 18.2726C45.315 25.1117 42.3477 32.8393 42.3477 32.8393C42.1365 32.7664 41.3907 32.7606 41.3907 32.7606C39.1751 32.749 38.7061 34.6543 38.6944 35.422C38.6942 35.9075 38.797 36.3876 38.9959 36.8306C34.5895 40.092 28.6186 42.1037 26.6682 42.899C24.7177 43.6944 24.0913 44.8247 24.0913 45.958C24.0913 47.0913 25.462 51.1744 35.8335 55.4846C46.205 59.7949 52.2429 60.312 52.2429 60.7286C52.2429 61.1452 52.9712 63.0593 55.0236 63.0593C57.0761 63.0593 57.7447 61.4948 57.7447 60.363C57.7447 59.2312 57.0586 57.6172 55.0353 57.6055C53.012 57.5939 52.3142 59.4482 52.3142 59.4482C49.8102 59.0637 47.835 58.8656 37.9632 55.1627C28.0913 51.4599 25.2261 47.151 25.1765 45.84C25.127 44.529 27.4635 43.7934 27.4635 43.7934C34.2545 41.3855 39.6485 37.5807 39.6485 37.5807C39.6485 37.5807 39.9399 38.1343 41.3965 38.1343C42.8532 38.1343 43.8656 36.6441 43.8656 36.6441L43.9952 36.6863C46.2822 37.4569 52.4716 39.2632 52.4716 39.2632L52.4483 38.1561C48.6959 37.2413 44.1365 35.7002 44.1365 35.7002C44.2822 34.3513 43.1737 33.304 43.1737 33.304C46.4482 25.3578 46.5444 17.8939 46.5444 17.8939C52.9013 15.6302 60.2691 12.982 60.2691 12.982L59.8321 11.923C54.6303 14.0905 46.6609 16.5945 46.6609 16.5945C46.6128 13.4408 46.0112 8.93682 41.4839 4.84358C36.9566 0.750345 26.8692 2.2915 26.8692 2.2915C26.8692 2.2915 26.8444 3.3505 26.8444 3.49471ZM39.7053 35.4132C39.7102 35.081 39.8132 34.7576 40.0013 34.4837C40.1895 34.2098 40.4543 33.9977 40.7627 33.8739C41.0711 33.7501 41.4091 33.7203 41.7344 33.7881C42.0597 33.8559 42.3577 34.0183 42.5909 34.255C42.8241 34.4916 42.9822 34.7919 43.0453 35.1182C43.1083 35.4444 43.0735 35.782 42.9453 36.0885C42.817 36.395 42.601 36.6568 42.3244 36.8409C42.0478 37.0251 41.723 37.1233 41.3907 37.1233C41.1677 37.1218 40.9472 37.0764 40.7418 36.9896C40.5364 36.9028 40.3501 36.7764 40.1936 36.6175C40.0371 36.4587 39.9134 36.2706 39.8296 36.064C39.7458 35.8573 39.7036 35.6362 39.7053 35.4132ZM53.2625 60.347C53.2503 59.9969 53.343 59.6512 53.5286 59.3541C53.7143 59.057 53.9844 58.8222 54.3044 58.6797C54.6244 58.5372 54.9797 58.4935 55.3247 58.5543C55.6697 58.6151 55.9887 58.7775 56.2407 59.0208C56.4927 59.264 56.6664 59.5771 56.7393 59.9197C56.8123 60.2623 56.7812 60.6189 56.6501 60.9437C56.519 61.2686 56.2939 61.5469 56.0036 61.7429C55.7133 61.939 55.371 62.0438 55.0207 62.044C54.5626 62.0518 54.1202 61.8775 53.7905 61.5593C53.4609 61.2411 53.271 60.8051 53.2625 60.347Z" fill="#565F64"/>
<path fill-rule="evenodd" clip-rule="evenodd" d="M75.8219 42.0716C70.8139 42.3119 61.6922 40.3979 61.6922 40.3979L60.3201 41.0723C64.7731 42.5042 74.4425 43.2573 75.1286 43.1306C83.5088 42.6004 86.8547 41.0359 87.047 35.738C87.2393 30.4401 81.4126 23.1451 81.4126 23.1451L80.4978 23.9157C82.4716 26.2755 85.6501 31.0432 85.988 35.955C86.326 40.8669 80.8358 41.8298 75.8263 42.0731L75.8219 42.0716Z" fill="#565F64"/>
<path fill-rule="evenodd" clip-rule="evenodd" d="M0.984079 21.6025C1.00739 19.604 3.20404 14.3789 5.46188 12.6455L4.64323 11.8516C4.64323 11.8516 -0.364795 17.4845 0.0212216 22.0599C0.407239 26.6353 5.41089 27.4496 14.1072 26.7314L13.3614 25.7205C13.3614 25.7205 8.26305 26.3949 5.31912 25.7453C2.3752 25.0956 0.959316 23.6011 0.984079 21.6025Z" fill="#565F64"/>
</svg>

<svg width="242" height="64" viewBox="0 0 242 64" fill="none" xmlns="http://www.w3.org/2000/svg"><path fill-rule="evenodd" clip-rule="evenodd" d="M164.263 25.113v10.97h2.173v-7.212l4.705 7.212h2.35v-10.97h-2.174v7.352l-4.779-7.352h-2.275z" fill="#565F64"/><path fill-rule="evenodd" clip-rule="evenodd" d="M157.928 30.613c0-1.79-.514-3.187-1.541-4.192-1.028-1.005-2.398-1.507-4.111-1.506a6.739 6.739 0 00-2.506.437 4.59 4.59 0 00-1.5.99 5.13 5.13 0 00-1.081 1.507c-.354.761-.532 1.7-.533 2.818 0 1.748.51 3.122 1.53 4.121 1.019 1 2.393 1.498 4.122 1.496 1.705 0 3.068-.5 4.089-1.503 1.02-1.002 1.53-2.39 1.529-4.165l.002-.003zm-3.295-2.87c.582.618.874 1.557.874 2.817 0 1.274-.3 2.23-.901 2.868a3.255 3.255 0 01-2.313.955 3.271 3.271 0 01-2.311-.963c-.608-.643-.913-1.586-.914-2.828 0-1.263.296-2.209.889-2.838.592-.63 1.372-.943 2.341-.94.971 0 1.748.31 2.33.93h.005zm-12.143 8.34v-9.116h3.423v-1.854h-9.212v1.854h3.438v9.116h2.351zm-7.505-1.424a3.295 3.295 0 00.092-3.514 3.199 3.199 0 00-1.282-1.116c-.543-.27-1.384-.536-2.522-.79-1.137-.253-1.854-.5-2.148-.738a.83.83 0 01-.348-.667.794.794 0 01.37-.684c.377-.26.903-.39 1.58-.39.655 0 1.146.123 1.473.372.327.249.541.655.641 1.22l2.351-.076c-.038-1.02-.424-1.833-1.157-2.442-.733-.609-1.824-.916-3.274-.92a6.057 6.057 0 00-2.283.388 3.116 3.116 0 00-1.446 1.113 2.747 2.747 0 00-.496 1.568c0 .874.355 1.612 1.065 2.214.506.431 1.385.794 2.635 1.09.973.23 1.595.387 1.868.48.315.084.605.246.84.472a.98.98 0 01.241.664c0 .403-.191.756-.573 1.058-.382.302-.95.452-1.706.451-.71 0-1.275-.169-1.694-.508-.419-.34-.695-.874-.833-1.59l-2.28.215c.155 1.223.624 2.154 1.409 2.794.785.64 1.912.96 3.381.96 1.008 0 1.85-.134 2.527-.4a3.282 3.282 0 001.568-1.224h.001zm-16.74-.43v-2.972h5.806v-1.854h-5.806v-2.436h6.243v-1.854h-8.594v10.97h8.822V34.23h-6.471zm-4.836 1.854v-10.97h-2.172v7.352l-4.779-7.352h-2.276v10.97h2.174v-7.212l4.705 7.212h2.348zm-11.464-6.785v-1.655h-1.078l.626-2.913h-1.851l-.609 2.913H97.33l.628-2.913h-1.787l-.63 2.913h-2.273v1.655h1.917l-.477 2.207h-1.44v1.655h1.083l-.629 2.913h1.787l.63-2.913h1.748l-.608 2.913h1.785l.625-2.913h2.262v-1.655h-1.911l.473-2.207h1.432zm-4.973 0h1.716l-.459 2.207h-1.733l.47-2.207h.006zm62.704-4.185v10.97h2.351v-10.97h-2.351z" fill="#E7A24F"/><path fill-rule="evenodd" clip-rule="evenodd" d="M179.298 25.113l-4.515 10.97h2.486l.965-2.496h4.661l1.002 2.496h2.533l-4.651-10.97h-2.481zm-.343 6.62l1.567-4.06 1.614 4.06h-3.181z" fill="#565F64"/><path fill-rule="evenodd" clip-rule="evenodd" d="M195.314 25.113l-2.056 7.481-2.082-7.48h-3.522v10.97h2.173l.007-8.637 2.28 8.636h2.259l2.289-8.636.009 8.636h2.173v-10.97h-3.53zm5.881 0v10.97h8.823V34.23h-6.47v-2.972h5.804v-1.854h-5.804v-2.436h6.243v-1.854h-8.596zm11.704 5.084c.506.431 1.385.794 2.635 1.09.973.23 1.595.387 1.868.48.316.084.605.246.84.472.161.184.246.42.241.664 0 .403-.191.756-.573 1.058-.381.302-.948.452-1.7.451-.711 0-1.275-.169-1.694-.508-.419-.34-.695-.874-.833-1.59l-2.287.214c.154 1.222.624 2.153 1.409 2.793.784.64 1.911.96 3.381.96 1.008 0 1.85-.133 2.527-.4a3.28 3.28 0 001.567-1.224 3.297 3.297 0 00.092-3.513 3.199 3.199 0 00-1.282-1.116c-.543-.271-1.384-.536-2.521-.79-1.138-.253-1.855-.5-2.149-.738a.82.82 0 01-.253-1.058.8.8 0 01.275-.294c.381-.265.909-.398 1.586-.398.655 0 1.146.125 1.473.373.327.249.541.656.641 1.221l2.351-.077c-.038-1.019-.424-1.833-1.157-2.442-.733-.608-1.826-.913-3.279-.914-.777-.02-1.55.11-2.278.383a3.116 3.116 0 00-1.446 1.113 2.744 2.744 0 00-.5 1.573c0 .874.355 1.612 1.065 2.214l.001.003zm12.542-3.23v9.116h2.351v-9.116h3.422v-1.854h-9.212v1.854h3.439zm7.295-1.854v10.97h8.823V34.23h-6.472v-2.972h5.807v-1.854h-5.807v-2.436h6.245v-1.854h-8.596z" fill="#43A2D9"/><path fill-rule="evenodd" clip-rule="evenodd" d="M60.284 27.112a3.759 3.759 0 114.482 2.904 3.777 3.777 0 01-4.482-2.904zm-5.797 15.7l14.288-6.992c.919-.45 3.752-2.714 4.704-5.757.953-3.043 1.218-8.529-3.366-11.8-4.584-3.27-10.615-1.736-13.024.764-2.41 2.5-4.058 5.827-3.496 12.488.562 6.661.893 11.295.893 11.295l.002.002zm9.268-32.21a2.913 2.913 0 103.24-2.634 2.954 2.954 0 00-3.24 2.634zm7.121 2.75a2.115 2.115 0 102.992-.427 2.137 2.137 0 00-2.992.427zm4.174 4.444a1.602 1.602 0 102.309.126 1.635 1.635 0 00-2.31-.126zm2.428 4.335a1.398 1.398 0 10-.21 2.788 1.398 1.398 0 00.21-2.788zm-.338 4.514a.916.916 0 10.271 1.229.89.89 0 00-.27-1.229zm-43.77-2.231c1.06-6.597-.336-10.04-2.552-12.714-2.215-2.673-8.115-4.648-12.93-1.735-4.816 2.914-4.96 8.404-4.238 11.508.722 3.104 3.378 5.578 4.266 6.095l13.72 8.05s.675-4.6 1.734-11.198v-.006zm-6.34-4.893a3.76 3.76 0 11-2.52-4.71 3.777 3.777 0 012.52 4.71zm-5.025-13.62a2.954 2.954 0 002.796-3.103 2.916 2.916 0 00-5.827.235 2.954 2.954 0 003.031 2.868zm-5.108 2.073a2.157 2.157 0 10-2.951-.648 2.137 2.137 0 002.95.648zm-3.85 3.463a1.67 1.67 0 10-2.312-.044 1.636 1.636 0 002.312.043zm-1.394 3.23a1.397 1.397 0 10-2.794 0 1.397 1.397 0 002.794 0zm-.219 3.563a.862.862 0 10-.364 1.205.89.89 0 00.361-1.203l.003-.002z" fill="#E7A24F"/><path fill-rule="evenodd" clip-rule="evenodd" d="M26.844 3.495c9.971-1.502 13.92 2.185 13.92 2.185 5.611 4.888 4.816 11.46 4.816 11.46-2.721.937-8.957 2.89-8.957 2.89.048.292.048 1.108.048 1.108l8.861-2.865c-.217 6.839-3.184 14.566-3.184 14.566-.212-.073-.957-.078-.957-.078-2.216-.012-2.685 1.893-2.697 2.661 0 .486.103.966.302 1.409-4.407 3.261-10.377 5.273-12.328 6.068-1.95.795-2.577 1.926-2.577 3.059 0 1.133 1.371 5.216 11.742 9.527 10.372 4.31 16.41 4.827 16.41 5.244 0 .416.728 2.33 2.78 2.33 2.053 0 2.722-1.564 2.722-2.696 0-1.132-.686-2.746-2.71-2.758-2.023-.011-2.72 1.843-2.72 1.843-2.505-.384-4.48-.582-14.352-4.285-9.872-3.703-12.737-8.012-12.787-9.323-.049-1.311 2.288-2.047 2.288-2.047 6.79-2.407 12.184-6.212 12.184-6.212s.292.553 1.748.553c1.457 0 2.47-1.49 2.47-1.49l.13.042c2.286.77 8.476 2.577 8.476 2.577l-.024-1.107c-3.752-.915-8.312-2.456-8.312-2.456.146-1.349-.962-2.396-.962-2.396 3.274-7.946 3.37-15.41 3.37-15.41 6.357-2.264 13.725-4.912 13.725-4.912l-.437-1.059c-5.202 2.168-13.171 4.671-13.171 4.671-.048-3.153-.65-7.657-5.177-11.75C36.957.75 26.869 2.29 26.869 2.29s-.025 1.06-.025 1.204zm12.861 31.918a1.686 1.686 0 111.686 1.71 1.696 1.696 0 01-1.686-1.71zm13.558 24.934a1.758 1.758 0 111.758 1.697 1.729 1.729 0 01-1.758-1.697zm22.559-18.275c-5.008.24-14.13-1.674-14.13-1.674l-1.372.674c4.453 1.432 14.122 2.185 14.809 2.059 8.38-.53 11.726-2.095 11.918-7.393.192-5.298-5.634-12.593-5.634-12.593l-.915.77c1.974 2.36 5.152 7.128 5.49 12.04.338 4.912-5.152 5.875-10.162 6.118l-.004-.001zM.984 21.602c.023-1.998 2.22-7.223 4.478-8.957l-.819-.793S-.365 17.485.021 22.06c.386 4.575 5.39 5.39 14.086 4.671l-.746-1.01s-5.098.674-8.042.024S.96 23.601.984 21.602z" fill="#565F64"/></svg>
